X:74
T:Jessica's
S:Kevin Burke
R:polka
E:12
I:speed 450
M:2/4
K:A
e2fe c2e2|f2e2 B2c2|A3B cBA2|e2c2B4|\
e2fe c2e2|f2e2 B2c2|A3B cBA2|F2A2 E4:|*
F3B A2F2|c2B2 A4|e2fe c2e2|a2g2 f4|\
e2fe c2e2|f2e2 B2c2|A3B cBA2|F2A2 E4:|**
<end>
<start>
